X: 4365
T: Bolies Road
R: reel
M: 4/4
K: Amajor
|:AE F/E/E AB ce|BA GA Bc df|eA ce f/g/a ec|AB GA Be cB|
AE F/E/E AB ce|BA GA Bc df|eA ce f/g/a ec|1 AB GA Be cB:|2 BA GB AB ce||
|:[df]f a/f/f fg af|e^d ef ec ^Bc|AE F/E/E AB ce|df ed ce ag|
ef de fd af|e2 ef ec ^Bc|AE F/E/E AB ce|1 BA GB AB ce:|2 BA GB AE F/F/G||

